X: 4224
M: 6/8
L: 1/8
K: A
(3(E/F/G/) |\
|: c |\
eaf faf | faf ecA | dfd ecA | ecA B2A |\
faf fag | faf ecA | dfd ecA | EFG A2 :|


